!!!COM: Palestrina, Giovanni Perluigi da
!!!OPR: Missa Sacerdos et pontifex
!!!OMD: Credo
!!!OTL: First Section
**kern	**kern	**kern	**kern	**kern
*Ibass	*Itenor	*Itenor	*Icalto	*Icant
!Bassus	!Tenor 2	!Tenor 1	!Altus	!Cantus
*clefF4	*clefGv2	*clefGv2	*clefG2	*clefG2
*k[b-]	*k[b-]	*k[b-]	*k[b-]	*k[b-]
*G:dor	*G:dor	*G:dor	*G:dor	*G:dor
*M4/2	*M4/2	*M4/2	*M4/2	*M4/2
=1	=1	=1	=1	=1
0D	0f	0d	0a	0r
=2	=2	=2	=2	=2
1A	2e	1c#	1a	0r
.	2.f	.	.	.
1B-	.	2.d	2.f	.
.	4e	.	.	.
.	2d	.	.	.
.	.	4e	4g	.
=3	=3	=3	=3	=3
2A	2c	2f	2a	0r
4G	2d	1g	1b-	.
4A	.	.	.	.
4B-	1d	.	.	.
4c	.	.	.	.
[2d	.	2f	2a	.
=4	=4	=4	=4	=4
2d]	1A	1e	1a	0r
2c#	.	.	.	.
[1d	2r	1a	1f	.
.	2a	.	.	.
=5	=5	=5	=5	=5
1d]	4a	1f	2r	1dd
.	4g	.	.	.
.	4f	.	2a	.
.	4e	.	.	.
1r	2d	2f	2a	2dd
.	2B-	2d	2g	2dd
=6	=6	=6	=6	=6
0r	1A	1e	1a	1cc#
.	4G	1g	1b-	2.dd
.	4A	.	.	.
.	4B-	.	.	.
.	4c	.	.	4ee
=7	=7	=7	=7	=7
0r	2d	2r	2a	2ff
.	4B-	4G	1b-	1gg
.	4c	4A	.	.
.	4d	4B-	.	.
.	4e	4c	.	.
.	4f	2d	4a	2ff
.	4g	.	4b-	.
=8	=8	=8	=8	=8
0r	2a	1c	2.cc	1ee
.	1g	.	.	.
.	.	.	4b-	.
.	.	1d	1a	1dd
.	2f#	.	.	.
=9	=9	=9	=9	=9
2r	1g	2r	2b-	2r
1G	.	1d	1g	1b-
.	1r	.	.	.
2A	.	2c	2f	2cc
=10	=10	=10	=10	=10
2B-	0r	2B-	2f	2dd
2G	.	2d	2g	2b-
1F	.	1f	1a	1cc
=11	=11	=11	=11	=11
2D	1r	2f	2a	2dd
2C	.	2g	2cc	2ee-
1G	2r	1g	2b-	2dd
.	[2B-	.	[2b-	[2dd
=12	=12	=12	=12	=12
0r	2B-]	0r	2b-]	2dd]
.	2c	.	2a	2cc
.	2d	.	2f	2a
.	2B-	.	2g	2dd
=13	=13	=13	=13	=13
0r	2c	0r	4a	2cc
.	.	.	4g	.
.	2d	.	2.b-	4b-
.	.	.	.	4a
.	1e-	.	.	4g
.	.	.	4a	4a
.	.	.	[2g	4b-
.	.	.	.	4g
=14	=14	=14	=14	=14
1r	1d	0r	2g]	2a
.	.	.	2f#	2a
2r	2r	.	2g	2b
[2G	[2d	.	[2g	[2b
=15	=15	=15	=15	=15
2G]	2d]	2r	2g]	2b]
2G	2d	2G	2g	2b
1C	1g	2G	1e	1cc
.	.	[2c	.	.
=16	=16	=16	=16	=16
1C	1e	2c]	1g	1cc
.	.	2c	.	.
2G	2d	2B	2g	2dd
2C	2g	2c	2e	2ee
=17	=17	=17	=17	=17
1F	1f	1c	1a	1ff
[1BB-	2.f	2.d	[1b-	[1dd
.	4e	4e	.	.
=18	=18	=18	=18	=18
1BB-]	4d	2f	1b-]	1dd]
.	4B-	.	.	.
.	1f	2F	.	.
1F	.	1A	1a	1cc
.	2f	.	.	.
=19	=19	=19	=19	=19
0G	2.d	2.B-	0g	0b-
.	4c	4c	.	.
.	4B-	1d	.	.
.	4A	.	.	.
.	2G	.	.	.
=20	=20	=20	=20	=20
2D	2A	2d	2f#	2a
2.D	2.f#	2.d	2.a	2.dd
4D	4f#	4d	4a	4dd
2D	2f#	2d	2a	2dd
=21	=21	=21	=21	=21
1G	1g	1d	1b	1dd
1C	1g	1c	1cc	1ee
=22	=22	=22	=22	=22
2F	2f	2A	2cc	2ff
2BB-	2f	2B-	2b-	2dd
2.F	2.f	2.c	2b-	2.cc
.	.	.	2a	.
4F	4f	4c	.	4cc
=23	=23	=23	=23	=23
0BB-	2d	2B-	2b-	2dd
.	1f	1B-	1b-	1dd
.	2f	2B-	2b-	2dd
=24	=24	=24	=24	=24
0r	2f	2B-	2b-	2dd
.	2e	2c	2a	2cc
.	1d	1G	1g	1b-
=25	=25	=25	=25	=25
2r	0c	2A	2e	2a
1F	.	1f	1a	1cc
2F	.	2f	2a	2cc
=26	=26	=26	=26	=26
2F	0r	2f	2a	2cc
2G	.	2d	2g	2b-
1D	.	1d	1f	2a
.	.	.	.	[2b-
=27	=27	=27	=27	=27
2E-	1r	2B-	2.e-	2b-]
2C	.	2A	.	2cc
.	.	.	4e-	.
2BB-	2r	1B-	2d	2dd
2B-	2d	.	2f	2b-
=28	=28	=28	=28	=28
2G	2e-	0r	2g	2b-
2B-	2d	.	4f	2b-
.	.	.	2g	.
1A	1c	.	.	1cc
.	.	.	8f#	.
.	.	.	8e	.
.	.	.	2f#	.
=29	=29	=29	=29	=29
1G	1d	1r	2g	2b-
.	.	.	2b-	2dd
1r	1r	1e-	2g	2b-
.	.	.	2b-	2g
=30	=30	=30	=30	=30
0r	0r	2c	2a	2cc
.	.	2e-	2.g	4b-
.	.	.	.	4a
.	.	2d	.	4b-
.	.	.	4f	4a
.	.	2d	[2f	4a
.	.	.	.	8g
.	.	.	.	8f
=31	=31	=31	=31	=31
1r	1r	1c	2f]	2g
.	.	.	2e	2g
[1F	1c	2.A	2f	[1f
.	.	.	[2a	.
.	.	4B-	.	.
=32	=32	=32	=32	=32
2F]	1A	2c	2a]	1f]
2D	.	2d	2f	.
1E-	1G	2B-	1g	1r
.	.	2c	.	.
=33	=33	=33	=33	=33
[0D	1A	2d	2f	1r
.	.	2f	2a	.
.	1a	2d	2f	1ff
.	.	[2f	2d	.
=34	=34	=34	=34	=34
1D]	2f	4f]	2.a	2dd
.	.	4e	.	.
.	2.a	2d	.	2ff
.	.	.	4b-	.
1r	.	1c	2.cc	1ee
.	4g	.	.	.
.	[2g	.	.	.
.	.	.	4b-	.
=35	=35	=35	=35	=35
1r	2g]	1d	1a	[0dd
.	2f#	.	.	.
2r	2g	1G	2g	.
[2G	[2d	.	[2b-	.
=36	=36	=36	=36	=36
2G]	2d]	0r	2b-]	1dd]
2F#	2d	.	2a	.
2G	2d	.	2b-	1r
2A	2c	.	2a	.
=37	=37	=37	=37	=37
1B-	2d	2r	2f	2r
.	2d	1d	2f	1ff
1A	1r	.	2.a	.
.	.	2c#	.	2ee
.	.	.	4a	.
=38	=38	=38	=38	=38
0r	0r	2d	2a	2ff
.	.	2e	2g	2ee
.	.	2f	2a	2dd
.	.	2g	2b-	2dd
=39	=39	=39	=39	=39
1r	2r	1c	1cc	1ee-
.	1g	.	.	.
2r	.	1d	2b-	2dd
[2d	4f#	.	[2a	[2dd
.	4e	.	.	.
=40	=40	=40	=40	=40
2d]	2f#	0r	2a]	2dd]
2G	2g	.	2b-	2dd
2.A	2.e	.	2.a	2.cc
4A	4e	.	4a	4cc
=41	=41	=41	=41	=41
2A	1f	0r	2a	2cc
1B-	.	.	1f	1dd
.	2g	.	.	.
2c	2g	.	2e	2cc
=42	=42	=42	=42	=42
1F	1a	1r	1f	1cc
1B-	1f	1d	1r	1r
=43	=43	=43	=43	=43
2B-	2d	2f	0r	0r
2A	2c	2f	.	.
1G	1B-	2e-	.	.
.	.	[2d	.	.
=44	=44	=44	=44	=44
2F	2A	2d]	1r	1r
2E-	2G	2c	.	.
1D	1A	2d	2r	2r
.	.	2d	2a	2ff
=45	=45	=45	=45	=45
0r	0r	2d	2a	2ff
.	.	2c	2a	2ee
.	.	1B-	1b-	1dd
=46	=46	=46	=46	=46
1r	1r	2F	2a	2cc
.	.	2G	2g	2b-
2r	2r	1d	4f	1a
.	.	.	4g	.
2d	2f	.	4a	.
.	.	.	4b-	.
=47	=47	=47	=47	=47
4c	4e	1A	0cc	1a
4B-	4d	.	.	.
4A	4c	.	.	.
4G	4B-	.	.	.
2F	2A	2r	.	2r
2E	2c	2e	.	2gg
=48	=48	=48	=48	=48
1D	1d	4a	1f	4ff
.	.	4g	.	4ee
.	.	4f	.	4dd
.	.	4e	.	4cc
2D	2.f	2d	2r	2b-
2F	.	2c	2cc	2a
.	4e	.	.	.
=49	=49	=49	=49	=49
1G	4d	2r	4b-	1.g
.	4c	.	4a	.
.	2B-	2d	4g	.
.	.	.	4f	.
1C	2.c	4c	2e	.
.	.	4B-	.	.
.	.	4A	2e	[2a
.	4B-	4G	.	.
=50	=50	=50	=50	=50
0D	2A	2F	2.d	2a]
.	2d	2G	.	4b-
.	.	.	4e	4cc
.	1d	4A	4f#	1dd
.	.	4B-	2g	.
.	.	2A	.	.
.	.	.	4f#	.
=51	=51	=51	=51	=51
1G	1d	1G	1g	1b
1r	1r	1r	1r	1r
=52	=52	=52	=52	=52
0r	1e	1c	1g	1cc
.	2f	2A	2a	2cc
.	2e	2A	2a	2cc
=53	=53	=53	=53	=53
0r	2d	1B-	1f	1dd
.	2.f	.	.	.
.	.	1G	1g	1b-
.	8e	.	.	.
.	8d	.	.	.
.	2e	.	.	.
=54	=54	=54	=54	=54
2r	2f	2F	2cc	1a
2F	2c	2f	2cc	.
2F	2d	2f	2a	1r
2F	2c	2f	2a	.
=55	=55	=55	=55	=55
1G	1B-	2e-	1g	0r
.	.	2.d	.	.
1E-	1G	.	1g	.
.	.	8c	.	.
.	.	8B-	.	.
.	.	2c	.	.
=56	=56	=56	=56	=56
0D	2A	2d	2f	2r
.	1f	1d	1a	1dd
.	2f	2d	2a	2dd
=57	=57	=57	=57	=57
0r	2g	2e-	2g	2b-
.	2g	2e-	2b-	2b-
.	2e-	2c	2b-	2cc
.	2e-	2c	2a	2cc
=58	=58	=58	=58	=58
1r	1f	1B-	1b-	1dd
1BB-	1f	1B-	1b-	1dd
=59	=59	=59	=59	=59
1F	2f	1c	1a	1cc
.	2F	.	.	.
1C	1G	1c	2g	1ee-
.	.	.	[2g	.
=60	=60	=60	=60	=60
1D	0d	1A	2g]	1dd
.	.	.	4f#	.
.	.	.	4e	.
1D	.	1A	2f#	1dd
.	.	.	2f#	.
=61	=61	=61	=61	=61
0G	0d	0G	0g	0b
*-	*-	*-	*-	*-
!!!CDT: 1525/^1526/-1594/2/2
!!!OCY: Italia
!!!AGN: Mass (Paraphrase)
!!!AST: renaissance, vocal
!!!ASW: Antiphon
!!!PWK: Masses, Book 7
!!!RNB: Cadence finals: C,D
!!!YOR: Le Opere Complete, v. 23, p. 82
!!!YOO: Rome, Italy: Fratelli Scalera
!!!END: 1992//
!!!EED: John Miller
!!!YEC: Copyright 2000, John Miller
!!!YEN: United States of America
!!!YEM: Rights to all derivative electronic formats reserved.
!!!YEM: Refer to licensing agreement for further details.
!!!YEM: This file must be accompanied by the licensing agreement.
!!!YEM: A copy of the licensing agreement may be found at http://www.music-cog.ohio-state.edu/HumdrumDatabases/Palestrina/license.txt
!!!EMD: converted to Humdrum by Bret Aarden
